X:1
T:Seamus O'Shanahan's (jig)
R: jig
M:6/8
L:1/8
O:Paul O'Shaughnessy (15.9.2015/NS)
K:Bmin
|: "Bm" F2B Bcd | "A"  cAA Ace | "D"   fed cde |  "F#m" d3      cAG |
   "Bm" F3  Bcd | "A"  cAA Ace | "D"   fed cde |1 "A"   dBA     B3 :|2 "F#m" dBA Bcd||
|: "Em" e2g gag | "Bm" fdB Bed | "F#m" c2e edc |  "Bm"  dff     fdB |
   "Em" egg gag | "Bm" fdB Bed | "F#m" cde dcA |   "G"  BcB "A" B2B:|
